sources/design/Outline/്യ.svg

<svg:svg xmlns:cc="http://creativecommons.org/ns#" xmlns:dc="http://purl.org/dc/elements/1.1/" xmlns:inkscape="http://www.inkscape.org/namespaces/inkscape" xmlns:rdf="http://www.w3.org/1999/02/22-rdf-syntax-ns#" xmlns:sodipodi="http://sodipodi.sourceforge.net/DTD/sodipodi-0.dtd" xmlns:svg="http://www.w3.org/2000/svg" xml:space="preserve" width="1000" height="1000" version="1.1" style="clip-rule:evenodd;fill-rule:evenodd;image-rendering:optimizeQuality;shape-rendering:geometricPrecision;text-rendering:geometricPrecision" viewBox="0 0 1000 1000" id="svg10" sodipodi:docname="്യ.svg" inkscape:version="1.1.1 (3bf5ae0d25, 2021-09-20)"><svg:text text-anchor="middle" x="127.76926" y="963.05029" id="bottom" inkscape:label="bottom" style="clip-rule:evenodd;fill-rule:evenodd;image-rendering:optimizeQuality;shape-rendering:geometricPrecision;text-rendering:geometricPrecision">✛</svg:text><svg:metadata id="metadata14"><rdf:RDF><cc:Work rdf:about=""><dc:format>image/svg+xml</dc:format><dc:type rdf:resource="http://purl.org/dc/dcmitype/StillImage" /><dc:title /></cc:Work></rdf:RDF></svg:metadata><sodipodi:namedview pagecolor="#ffffff" bordercolor="#666666" borderopacity="1" objecttolerance="10" gridtolerance="10" guidetolerance="10" inkscape:pageopacity="0" inkscape:pageshadow="2" inkscape:window-width="1920" inkscape:window-height="1009" id="namedview12" showgrid="false" inkscape:zoom="3.3956354" inkscape:cx="94.38587" inkscape:cy="924.42198" inkscape:window-x="0" inkscape:window-y="60" inkscape:window-maximized="1" inkscape:current-layer="svg10" showguides="true" inkscape:guide-bbox="true" inkscape:document-rotation="0" inkscape:pagecheckerboard="0"><sodipodi:guide position="0,1000" orientation="0,1" id="guide16" inkscape:label="" inkscape:locked="true" inkscape:color="rgb(0,0,255)" /><sodipodi:guide position="1763.3122,2036.1693" orientation="1000,0" id="guide18" /><sodipodi:guide position="0,200" orientation="0,1" id="guide20" inkscape:label="base" inkscape:locked="true" inkscape:color="rgb(0,0,255)" /><inkscape:grid type="xygrid" id="grid24" originx="-473.37552" originy="-489.69235" /><sodipodi:guide position="0,0" orientation="0,1" id="guide34" inkscape:label="bottom" inkscape:locked="true" inkscape:color="rgb(0,0,255)" /><sodipodi:guide position="225.05109,1693.3186" orientation="0,1" id="guide44" inkscape:label="" inkscape:locked="false" inkscape:color="rgb(0,0,255)" /><sodipodi:guide position="0,900" orientation="0,1" id="guide46" inkscape:label="" inkscape:locked="true" inkscape:color="rgb(0,0,255)" /><sodipodi:guide position="185.37267,494.36139" orientation="-1,0" id="guide840" inkscape:label="width" inkscape:locked="false" inkscape:color="rgb(0,0,255)" /></sodipodi:namedview>
 <svg:defs id="defs4"><inkscape:path-effect effect="fillet_chamfer" id="path-effect842" is_visible="true" lpeversion="1" satellites_param="F,0,1,1,0,22.925526,0,1 @ F,0,0,1,0,0,0,1 @ F,0,0,1,0,0,0,1 @ F,0,0,1,0,0,0,1 @ F,0,0,1,0,0,0,1 @ F,0,0,1,0,0,0,1 @ F,0,0,1,0,0,0,1 @ F,0,0,1,0,0,0,1 @ F,0,0,1,0,0,0,1 @ F,0,0,1,0,0,0,1 @ F,0,0,1,0,19.790549,0,1 @ F,0,0,1,0,19.790549,0,1 @ F,0,0,1,0,0,0,1 @ F,0,0,1,0,0,0,1 @ F,0,0,1,0,0,0,1 @ F,0,0,1,0,0,0,1 @ F,0,0,1,0,0,0,1 @ F,0,0,1,0,0,0,1 @ F,0,0,1,0,0,0,1 @ F,0,0,1,0,0,0,1 @ F,0,1,1,0,22.925526,0,1" unit="px" method="auto" mode="F" radius="0" chamfer_steps="1" flexible="false" use_knot_distance="true" apply_no_radius="true" apply_with_radius="true" only_selected="true" hide_knots="false" /><inkscape:path-effect effect="fillet_chamfer" id="path-effect841" is_visible="true" lpeversion="1" satellites_param="F,0,0,1,0,0,0,1 @ F,0,0,1,0,23.507931,0,1 @ F,0,0,1,0,0,0,1 @ F,0,0,1,0,0,0,1 @ F,0,0,1,0,0,0,1 @ F,0,0,1,0,0,0,1 @ F,0,0,1,0,0,0,1 @ F,0,0,1,0,0,0,1 @ F,0,0,1,0,0,0,1 @ F,0,0,1,0,0,0,1 @ F,0,0,1,0,0,0,1 @ F,0,0,1,0,26.759831,0,1 @ F,0,0,1,0,14.932629,0,1 @ F,0,0,1,0,0,0,1 @ F,0,0,1,0,0,0,1 @ F,0,0,1,0,0,0,1 @ F,0,0,1,0,0,0,1 @ F,0,0,1,0,0,0,1 @ F,0,0,1,0,0,0,1 @ F,0,0,1,0,0,0,1 @ F,0,0,1,0,0,0,1 @ F,0,0,1,0,28.147575,0,1" unit="px" method="auto" mode="F" radius="0" chamfer_steps="1" flexible="false" use_knot_distance="true" apply_no_radius="true" apply_with_radius="true" only_selected="true" hide_knots="false" />
  <svg:style type="text/css" id="style2">
   
    .fil0 {fill:#EF7F1A;fill-rule:nonzero}
   
  </svg:style>
 <inkscape:path-effect effect="spiro" id="path-effect1214" is_visible="true" lpeversion="1" /><inkscape:path-effect effect="spiro" id="path-effect1195" is_visible="true" lpeversion="1" /></svg:defs>
 
<svg:g id="path933-9-3-62-3-6"><svg:path style="color:#000000;clip-rule:nonzero;fill:#1a5fb4;fill-rule:nonzero;stroke-linecap:round;stroke-linejoin:round;-inkscape-stroke:none;paint-order:fill stroke markers;shape-rendering:auto" d="M 24.568359,120.89844 C 17.709496,121.18365999999999 10.874584,122.94491 4.748046900000002,126.33202999999999 C -7.505026999999998,133.10627 -15.959806999999998,146.11312999999998 -18.060547,159.5957 C -23.007869,191.34767 -25.620252,223.45809 -25.865234,255.5957 C -26.635367000000002,356.62451999999996 -4.276989,454.3982 20.955078,548.30078 C 38.328424,612.95668 56.794154,675.59288 64.046875,738.1210900000001 C 67.483231,767.7471 68.012201,796.2206800000001 61.644531,821.3652300000001 C 55.40117,846.0189200000001 41.410251,868.2396400000001 22.96875,879.8710900000001 C 13.100675,886.0951000000001 1.3926255000000012,889.7328800000001 -9.923828100000001,890.0722700000001 C -21.198096,890.4103800000001 -32.818376,887.4472700000001 -42.205078,881.8359400000002 C -51.720205,876.1478400000002 -60.477464,866.9000500000002 -67.355469,855.6738300000002 C -70.82424,850.0121300000002 -73.770591,843.9944900000002 -76.132812,837.7578100000002 C -80.704488,825.6877800000002 -89.49791400000001,814.7719500000002 -102.0918,808.6972700000002 C -114.68568,802.6225800000002 -130.78323,802.6396700000003 -143.75781,808.5332000000002 L -237.99609,851.3398400000002 C -250.74851,857.1324600000003 -262.29832,869.1728900000002 -265.17187,884.7304700000002 C -268.04543,900.2880500000002 -261.17285000000004,916.3227400000002 -250.75,926.1308600000002 C -242.18164,934.1938700000002 -233.30583000000001,941.9295800000002 -224.14453,949.3144500000002 C -173.68736,989.9876700000002 -113.54251000000001,1020.4933000000002 -48.099609000000015,1031.9297000000001 C -20.208258000000015,1036.8038000000001 9.059283499999985,1038.2824 38.416015999999985,1033.9141000000002 C 67.85591199999999,1029.5334000000003 97.11047799999999,1019.2210000000002 122.65819999999998,1001.4727000000001 C 151.3671,981.5282000000002 172.95801999999998,953.8778900000001 187.35546999999997,923.5898400000001 C 201.70297999999997,893.40686 208.85804999999996,861.0335600000001 211.15429999999998,829.1464800000001 C 215.03991999999997,775.1882300000001 205.29990999999998,722.9588400000001 192.50780999999998,673.9960900000001 C 179.72906999999998,625.0844500000001 163.88840999999996,578.8253300000001 153.26171999999997,533.0371100000001 C 136.30236999999997,459.96278000000007 131.57983999999996,384.13463000000013 143.30077999999997,311.2285200000001 C 147.99590999999998,282.02406000000013 155.32268999999997,253.22633000000013 165.14843999999997,225.32031000000012 C 173.93066999999996,200.37799000000012 161.84535999999997,171.76527000000013 136.67577999999997,161.5859400000001 L 44.53125,124.32031 C 38.310116,121.80430000000001 31.427222,120.61322000000001 24.568359,120.89844000000001 L 24.568359,120.89844 M 38.773437,186.71289 L 105.79688,213.81835999999998 C 96.218318,242.47451999999998 88.857643,271.86636999999996 84.060547,301.70507999999995 C 70.908294,383.51419999999996 76.347439,467.03103 94.814453,546.60156 C 106.36747,596.38113 122.4344,643.1520399999999 134.45508,689.16211 C 146.4624,735.12108 154.46963,780.94173 151.30859,824.83789 C 149.44830000000002,850.67108 143.66287,875.74774 133.16602,897.83008 C 122.7191,919.8073499999999 107.24336,939.1244399999999 88.425781,952.19727 C 71.656401,963.84718 51.111542,971.3653400000001 29.585937,974.56836 C 7.977168900000002,977.78376 -14.905403,976.82015 -37.771484,972.82422 C -91.45223899999999,963.44331 -142.79634,937.8213599999999 -186.48827999999997,902.60156 C -188.78280999999998,900.7519599999999 -191.01227999999998,898.82184 -193.26561999999998,896.9218699999999 L -128.55273,867.5273399999999 C -125.58803999999999,874.2094699999999 -122.34667999999999,880.7696999999998 -118.51758,887.0195299999999 C -107.59425999999999,904.8484699999999 -92.72238399999999,921.5382 -72.99023399999999,933.3339799999999 C -53.29030499999999,945.1105099999999 -30.723105999999987,950.7245999999999 -8.124999999999986,950.0468699999999 C 14.430921000000016,949.3704199999999 36.181953000000014,942.4732999999999 54.976562000000015,930.6191399999999 C 89.90422400000001,908.5895199999999 110.56189,872.6069999999999 119.80859000000001,836.0937499999999 C 128.93099,800.0713699999999 127.48018,764.2605699999999 123.64648000000001,731.2089799999999 C 115.59393,661.78512 95.998149,596.36271 78.900391,532.73242 C 54.090521,440.40107 33.432987,347.85833 34.132812,256.05273 C 34.309475,232.87749 35.899846000000004,209.71417 38.773437,186.71289000000002 L 38.773437,186.71289" id="path27262" /></svg:g></svg:svg>

<svg:svg xmlns:cc="http://creativecommons.org/ns#" xmlns:dc="http://purl.org/dc/elements/1.1/" xmlns:inkscape="http://www.inkscape.org/namespaces/inkscape" xmlns:rdf="http://www.w3.org/1999/02/22-rdf-syntax-ns#" xmlns:sodipodi="http://sodipodi.sourceforge.net/DTD/sodipodi-0.dtd" xmlns:svg="http://www.w3.org/2000/svg" xml:space="preserve" width="1000" height="1000" version="1.1" style="clip-rule:evenodd;fill-rule:evenodd;image-rendering:optimizeQuality;shape-rendering:geometricPrecision;text-rendering:geometricPrecision" viewBox="0 0 1000 1000" id="svg10" sodipodi:docname="്യ.svg" inkscape:version="1.1.1 (3bf5ae0d25, 2021-09-20)"><svg:text text-anchor="middle" x="127.76926" y="963.05029" id="bottom" inkscape:label="bottom" style="clip-rule:evenodd;fill-rule:evenodd;image-rendering:optimizeQuality;shape-rendering:geometricPrecision;text-rendering:geometricPrecision">✛</svg:text><svg:metadata id="metadata14"><rdf:RDF><cc:Work rdf:about=""><dc:format>image/svg+xml</dc:format><dc:type rdf:resource="http://purl.org/dc/dcmitype/StillImage" /><dc:title /></cc:Work></rdf:RDF></svg:metadata><sodipodi:namedview pagecolor="#ffffff" bordercolor="#666666" borderopacity="1" objecttolerance="10" gridtolerance="10" guidetolerance="10" inkscape:pageopacity="0" inkscape:pageshadow="2" inkscape:window-width="1920" inkscape:window-height="1009" id="namedview12" showgrid="false" inkscape:zoom="3.3956354" inkscape:cx="94.38587" inkscape:cy="924.42198" inkscape:window-x="0" inkscape:window-y="60" inkscape:window-maximized="1" inkscape:current-layer="svg10" showguides="true" inkscape:guide-bbox="true" inkscape:document-rotation="0" inkscape:pagecheckerboard="0"><sodipodi:guide position="0,1000" orientation="0,1" id="guide16" inkscape:label="" inkscape:locked="true" inkscape:color="rgb(0,0,255)" /><sodipodi:guide position="1763.3122,2036.1693" orientation="1000,0" id="guide18" /><sodipodi:guide position="0,200" orientation="0,1" id="guide20" inkscape:label="base" inkscape:locked="true" inkscape:color="rgb(0,0,255)" /><inkscape:grid type="xygrid" id="grid24" originx="-473.37552" originy="-489.69235" /><sodipodi:guide position="0,0" orientation="0,1" id="guide34" inkscape:label="bottom" inkscape:locked="true" inkscape:color="rgb(0,0,255)" /><sodipodi:guide position="225.05109,1693.3186" orientation="0,1" id="guide44" inkscape:label="" inkscape:locked="false" inkscape:color="rgb(0,0,255)" /><sodipodi:guide position="0,900" orientation="0,1" id="guide46" inkscape:label="" inkscape:locked="true" inkscape:color="rgb(0,0,255)" /><sodipodi:guide position="185.37267,494.36139" orientation="-1,0" id="guide840" inkscape:label="width" inkscape:locked="false" inkscape:color="rgb(0,0,255)" /></sodipodi:namedview>
 <svg:defs id="defs4"><inkscape:path-effect effect="fillet_chamfer" id="path-effect842" is_visible="true" lpeversion="1" satellites_param="F,0,1,1,0,22.925526,0,1 @ F,0,0,1,0,0,0,1 @ F,0,0,1,0,0,0,1 @ F,0,0,1,0,0,0,1 @ F,0,0,1,0,0,0,1 @ F,0,0,1,0,0,0,1 @ F,0,0,1,0,0,0,1 @ F,0,0,1,0,0,0,1 @ F,0,0,1,0,0,0,1 @ F,0,0,1,0,0,0,1 @ F,0,0,1,0,19.790549,0,1 @ F,0,0,1,0,19.790549,0,1 @ F,0,0,1,0,0,0,1 @ F,0,0,1,0,0,0,1 @ F,0,0,1,0,0,0,1 @ F,0,0,1,0,0,0,1 @ F,0,0,1,0,0,0,1 @ F,0,0,1,0,0,0,1 @ F,0,0,1,0,0,0,1 @ F,0,0,1,0,0,0,1 @ F,0,1,1,0,22.925526,0,1" unit="px" method="auto" mode="F" radius="0" chamfer_steps="1" flexible="false" use_knot_distance="true" apply_no_radius="true" apply_with_radius="true" only_selected="true" hide_knots="false" /><inkscape:path-effect effect="fillet_chamfer" id="path-effect841" is_visible="true" lpeversion="1" satellites_param="F,0,0,1,0,0,0,1 @ F,0,0,1,0,23.507931,0,1 @ F,0,0,1,0,0,0,1 @ F,0,0,1,0,0,0,1 @ F,0,0,1,0,0,0,1 @ F,0,0,1,0,0,0,1 @ F,0,0,1,0,0,0,1 @ F,0,0,1,0,0,0,1 @ F,0,0,1,0,0,0,1 @ F,0,0,1,0,0,0,1 @ F,0,0,1,0,0,0,1 @ F,0,0,1,0,26.759831,0,1 @ F,0,0,1,0,14.932629,0,1 @ F,0,0,1,0,0,0,1 @ F,0,0,1,0,0,0,1 @ F,0,0,1,0,0,0,1 @ F,0,0,1,0,0,0,1 @ F,0,0,1,0,0,0,1 @ F,0,0,1,0,0,0,1 @ F,0,0,1,0,0,0,1 @ F,0,0,1,0,0,0,1 @ F,0,0,1,0,28.147575,0,1" unit="px" method="auto" mode="F" radius="0" chamfer_steps="1" flexible="false" use_knot_distance="true" apply_no_radius="true" apply_with_radius="true" only_selected="true" hide_knots="false" />
  <svg:style type="text/css" id="style2">
   
    .fil0 {fill:#EF7F1A;fill-rule:nonzero}
   
  </svg:style>
 <inkscape:path-effect effect="spiro" id="path-effect1214" is_visible="true" lpeversion="1" /><inkscape:path-effect effect="spiro" id="path-effect1195" is_visible="true" lpeversion="1" /></svg:defs>
 
<svg:g id="path933-9-3-62-3-6"><svg:path style="color:#000000;clip-rule:nonzero;fill:#1a5fb4;fill-rule:nonzero;stroke-linecap:round;stroke-linejoin:round;-inkscape-stroke:none;shape-rendering:auto" d="m 24.568359,120.89844 c -6.858863,0.28522 -13.693775,2.04647 -19.8203121,5.43359 -12.2530739,6.77424 -20.7078539,19.7811 -22.8085939,33.26367 -4.947322,31.75197 -7.559705,63.86239 -7.804687,96 -0.770133,101.02882 21.588245,198.8025 46.820312,292.70508 17.373346,64.6559 35.839076,127.2921 43.091797,189.82031 3.436356,29.62601 3.965326,58.09959 -2.402344,83.24414 -6.243361,24.65369 -20.23428,46.87441 -38.675781,58.50586 -9.868075,6.22401 -21.5761245,9.86179 -32.8925781,10.20118 -11.2742679,0.33811 -22.8945479,-2.625 -32.2812499,-8.23633 -9.515127,-5.6881 -18.272386,-14.93589 -25.150391,-26.16211 -3.468771,-5.6617 -6.415122,-11.67934 -8.777343,-17.91602 -4.571676,-12.07003 -13.365102,-22.98586 -25.958988,-29.06054 -12.59388,-6.07469 -28.69143,-6.0576 -41.66601,-0.16407 l -94.23828,42.80664 c -12.75242,5.79262 -24.30223,17.83305 -27.17578,33.39063 -2.87356,15.55758 3.99902,31.59227 14.42187,41.40039 8.56836,8.06301 17.44417,15.79872 26.60547,23.18359 50.45717,40.67322 110.60202,71.17885 176.044921,82.61525 27.891351,4.8741 57.1588925,6.3527 86.515625,1.9844 29.439896,-4.3807 58.694462,-14.6931 84.242184,-32.4414 28.7089,-19.9445 50.29982,-47.59481 64.69727,-77.88286 14.34751,-30.18298 21.50258,-62.55628 23.79883,-94.44336 3.88562,-53.95825 -5.85439,-106.18764 -18.64649,-155.15039 -12.77874,-48.91164 -28.6194,-95.17076 -39.24609,-140.95898 -16.95935,-73.07433 -21.68188,-148.90248 -9.96094,-221.80859 4.69513,-29.20446 12.02191,-58.00219 21.84766,-85.90821 8.78223,-24.94232 -3.30308,-53.55504 -28.47266,-63.73437 L 44.53125,124.32031 c -6.221134,-2.51601 -13.104028,-3.70709 -19.962891,-3.42187 z m 14.205078,65.81445 67.023443,27.10547 c -9.578562,28.65616 -16.939237,58.04801 -21.736333,87.88672 -13.152253,81.80912 -7.713108,165.32595 10.753906,244.89648 11.553017,49.77957 27.619947,96.55048 39.640627,142.56055 12.00732,45.95897 20.01455,91.77962 16.85351,135.67578 -1.86029,25.83319 -7.64572,50.90985 -18.14257,72.99219 -10.44692,21.97727 -25.92266,41.29436 -44.740239,54.36719 -16.76938,11.64991 -37.314239,19.16807 -58.839844,22.37109 -21.6087681,3.2154 -44.49134,2.25179 -67.357421,-1.74414 -53.680755,-9.38091 -105.024856,-35.00286 -148.716796,-70.22266 -2.29453,-1.8496 -4.524,-3.77972 -6.77734,-5.67969 l 64.71289,-29.39453 c 2.96469,6.68213 6.20605,13.24236 10.03515,19.49219 10.92332,17.82894 25.795196,34.51867 45.527346,46.31445 19.699929,11.77653 42.267128,17.39062 64.865234,16.71289 22.555921,-0.67645 44.306953,-7.57357 63.101562,-19.42773 34.927662,-22.02962 55.585328,-58.01214 64.832028,-94.52539 9.1224,-36.02238 7.67159,-71.83318 3.83789,-104.88477 C 115.59393,661.78512 95.998149,596.36271 78.900391,532.73242 54.090521,440.40107 33.432987,347.85833 34.132812,256.05273 c 0.176663,-23.17524 1.767034,-46.33856 4.640625,-69.33984 z" id="path27174" /></svg:g></svg:svg>
